X: 40
T: la Grandeuse
O: Randy Miller
R: reel
Z: John Chambers <jc@eddie.mit.edu> http://eddie.mit.edu/~jc/music/
M: 4/4
L: 1/8
K: D
|: A,2 \
| "D"D2FE DEFA | dcde fdAF | "G"G2BG "D"F2AF |1 "Em"EFGE "A7"DCB,A, :|2 "A7"ECA,C "D"D2 :|
|: CB, \
| "A7"A,B,CD EFGF | EDEF GABc | "D"dcdB ABde | fagf "A7"e2A2 |
| "D"d2fd "A7"c2ec | "G"BcdB "D"AFDF | "G"G2BG "D"F2AF | "A7"ECA,C "D"D2 :|

